X: 9784
T: Denis Doody's
R: polka
M: 2/4
K: Eminor
F/G/|:EF/E/ DB,|EE z/GF/G/|(3AFD (3DEF|GA/c/ B/A/G|
EF/E/ DB,|EE z/F/G|AB/c/ B/AG|1 Fd FG:|2 Fd zB||
ee/f/ e/d/B|ee/f/ e/d/B|de f2|ge f2|
gf ge|Bc/B/ AB|zE E/F/G|1 AB zB:|2 AB/c/ B/A/||

